X:3788
T:Lord Loudon's march
O:england
R:March
M:4/4
L:1/8
K:G
F2FF F2E2 | DFAd B2A2 | BdAd GdF2 | E2EF E4 |\
F2FF F2E2 | DFAd B2A2 | BdAd FAdg | fedc d4 :|
|:agfg a2gf | efga g2fe | d2de f2fg | a2gf e4 |\
agfg a2gf | efga g2fe | dAde f2ag | fedc d4 :|


